X: 752
M: 6/8
L: 1/8
K: Ador
V: 1
z |\
cBc dcd | ede a2g | edB ABd | e2A A2 :|
|: g |\
a2A ABA | aAA A2f | g2G GAG | (TBAB) GAB |\
cBc dcd | ede a2g | edB ABd | e2A A2 :|
V: 2 clef=bass middle=d
z |\
a3 a3 | a3 a3 | g3 g3 | G3 G3 |\
|: z |\
a3 a3 | a3 a3 | g3 g3 | G3 G3 |\

